fs/brightness_low_20_regular.svg

<svg viewBox="0 0 20 20" fill="none" xmlns="http://www.w3.org/2000/svg" height="1em" width="1em">
  <path d="M10.5 3.5C10.5 3.22386 10.2761 3 10 3C9.72386 3 9.5 3.22386 9.5 3.5V4.5C9.5 4.77614 9.72386 5 10 5C10.2761 5 10.5 4.77614 10.5 4.5V3.5ZM10 6C7.79086 6 6 7.79086 6 10C6 12.2091 7.79086 14 10 14C12.2091 14 14 12.2091 14 10C14 7.79086 12.2091 6 10 6ZM7 10C7 8.34315 8.34315 7 10 7C11.6569 7 13 8.34315 13 10C13 11.6569 11.6569 13 10 13C8.34315 13 7 11.6569 7 10ZM17 10C17 10.2761 16.7761 10.5 16.5 10.5H15.5C15.2239 10.5 15 10.2761 15 10C15 9.72386 15.2239 9.5 15.5 9.5H16.5C16.7761 9.5 17 9.72386 17 10ZM10.5 15.5C10.5 15.2239 10.2761 15 10 15C9.72386 15 9.5 15.2239 9.5 15.5V16.5C9.5 16.7761 9.72386 17 10 17C10.2761 17 10.5 16.7761 10.5 16.5V15.5ZM5 10C5 10.2761 4.77614 10.5 4.5 10.5H3.5C3.22386 10.5 3 10.2761 3 10C3 9.72386 3.22386 9.5 3.5 9.5H4.5C4.77614 9.5 5 9.72386 5 10ZM5.85355 5.14645C5.65829 4.95118 5.34171 4.95118 5.14645 5.14645C4.95118 5.34171 4.95118 5.65829 5.14645 5.85355L5.64645 6.35355C5.84171 6.54882 6.15829 6.54882 6.35355 6.35355C6.54882 6.15829 6.54882 5.84171 6.35355 5.64645L5.85355 5.14645ZM5.14645 14.8536C5.34171 15.0488 5.65829 15.0488 5.85355 14.8536L6.35355 14.3536C6.54882 14.1583 6.54882 13.8417 6.35355 13.6464C6.15829 13.4512 5.84171 13.4512 5.64645 13.6464L5.14645 14.1464C4.95118 14.3417 4.95118 14.6583 5.14645 14.8536ZM14.1464 5.14645C14.3417 4.95118 14.6583 4.95118 14.8536 5.14645C15.0488 5.34171 15.0488 5.65829 14.8536 5.85355L14.3536 6.35355C14.1583 6.54882 13.8417 6.54882 13.6464 6.35355C13.4512 6.15829 13.4512 5.84171 13.6464 5.64645L14.1464 5.14645ZM14.8536 14.8536C14.6583 15.0488 14.3417 15.0488 14.1464 14.8536L13.6464 14.3536C13.4512 14.1583 13.4512 13.8417 13.6464 13.6464C13.8417 13.4512 14.1583 13.4512 14.3536 13.6464L14.8536 14.1464C15.0488 14.3417 15.0488 14.6583 14.8536 14.8536Z" fill="#212121"/>
</svg>

<svg viewBox="0 0 20 20" fill="none" xmlns="http://www.w3.org/2000/svg" height="1em" width="1em">
  <path d="M10.5 3.5a.5.5 0 0 0-1 0v1a.5.5 0 0 0 1 0v-1ZM10 6a4 4 0 1 0 0 8 4 4 0 0 0 0-8Zm-3 4a3 3 0 1 1 6 0 3 3 0 0 1-6 0Zm10 0a.5.5 0 0 1-.5.5h-1a.5.5 0 0 1 0-1h1a.5.5 0 0 1 .5.5Zm-6.5 5.5a.5.5 0 0 0-1 0v1a.5.5 0 0 0 1 0v-1ZM5 10a.5.5 0 0 1-.5.5h-1a.5.5 0 0 1 0-1h1a.5.5 0 0 1 .5.5Zm.854-4.854a.5.5 0 1 0-.708.708l.5.5a.5.5 0 1 0 .708-.708l-.5-.5Zm-.708 9.708a.5.5 0 0 0 .708 0l.5-.5a.5.5 0 0 0-.708-.708l-.5.5a.5.5 0 0 0 0 .708Zm9-9.708a.5.5 0 0 1 .708.708l-.5.5a.5.5 0 0 1-.708-.708l.5-.5Zm.708 9.708a.5.5 0 0 1-.708 0l-.5-.5a.5.5 0 0 1 .708-.708l.5.5a.5.5 0 0 1 0 .708Z" fill="#212121"/>
</svg>
